src/assets/curso/temas/tema2/img_05.svg

<svg height="60" viewBox="0 0 39.992 60" width="39.992" xmlns="http://www.w3.org/2000/svg"><g transform="translate(-10.008)"><path d="m49 41.445c0 10.48-9.878 18.78-21.521 17.406a18.938 18.938 0 0 1 -15.548-12.065c-4.378-12.312 7.676-22.754 15.492-44.059a2.786 2.786 0 0 1 5.154 0c6.669 18.178 16.423 28.448 16.423 38.718z" fill="#02a9f4"/><path d="m32.577 2.727a2.8 2.8 0 0 0 -4.077-1.313 2.535 2.535 0 0 1 1.077 1.313c6.669 18.173 16.423 28.448 16.423 38.718 0 9.255-7.7 16.805-17.526 17.5 11.206.8 20.526-7.321 20.526-17.5 0-10.27-9.754-20.54-16.423-38.718z" fill="#0377bc"/><circle cx="23.5" cy="32.5" fill="#008a00" r="3.5"/><circle cx="36.5" cy="45.5" fill="#008a00" r="3.5"/><path d="m27.361 59.844a22.371 22.371 0 0 0 2.616.156 20.823 20.823 0 0 0 13.867-5.147 17.787 17.787 0 0 0 6.156-13.408c0-6.1-3.2-12.013-7.246-19.494a143.622 143.622 0 0 1 -9.238-19.569 3.786 3.786 0 0 0 -7.032 0 143.516 143.516 0 0 1 -9.239 19.57c-5.127 9.474-9.177 16.957-6.256 25.168a20.057 20.057 0 0 0 16.372 12.724zm-8.361-36.944a145.1 145.1 0 0 0 9.362-19.829 1.788 1.788 0 0 1 3.276 0 145.151 145.151 0 0 0 9.362 19.829c3.913 7.232 7 12.944 7 18.542a15.812 15.812 0 0 1 -5.484 11.91 19.047 19.047 0 0 1 -14.92 4.5 18.015 18.015 0 0 1 -14.722-11.4c-2.623-7.374 1.049-14.158 6.126-23.552z"/><path d="m20 50a1 1 0 0 0 .707-.293l20-20a1 1 0 1 0 -1.414-1.414l-20 20a1 1 0 0 0 .707 1.707z"/><path d="m23.5 37a4.5 4.5 0 1 0 -4.5-4.5 4.5 4.5 0 0 0 4.5 4.5zm0-7a2.5 2.5 0 1 1 -2.5 2.5 2.5 2.5 0 0 1 2.5-2.5z"/><path d="m36.5 41a4.5 4.5 0 1 0 4.5 4.5 4.5 4.5 0 0 0 -4.5-4.5zm0 7a2.5 2.5 0 1 1 2.5-2.5 2.5 2.5 0 0 1 -2.5 2.5z"/></g></svg>

<svg xmlns="http://www.w3.org/2000/svg" width="39.992" height="60" viewBox="0 0 39.992 60"><g transform="translate(-10.008 0)"><path d="M49,41.445c0,10.48-9.878,18.78-21.521,17.406A18.938,18.938,0,0,1,11.931,46.786C7.553,34.474,19.607,24.032,27.423,2.727a2.786,2.786,0,0,1,5.154,0C39.246,20.905,49,31.175,49,41.445Z" fill="#02a9f4"/><path d="M32.577,2.727A2.8,2.8,0,0,0,28.5,1.414a2.535,2.535,0,0,1,1.077,1.313C36.246,20.9,46,31.175,46,41.445c0,9.255-7.7,16.805-17.526,17.5C39.68,59.745,49,51.624,49,41.445c0-10.27-9.754-20.54-16.423-38.718Z" fill="#0377bc"/><circle cx="3.5" cy="3.5" r="3.5" transform="translate(20 29)" fill="#008a00"/><circle cx="3.5" cy="3.5" r="3.5" transform="translate(33 42)" fill="#008a00"/><path d="M27.361,59.844A22.371,22.371,0,0,0,29.977,60a20.823,20.823,0,0,0,13.867-5.147A17.787,17.787,0,0,0,50,41.445c0-6.1-3.2-12.013-7.246-19.494A143.622,143.622,0,0,1,33.516,2.382a3.786,3.786,0,0,0-7.032,0,143.516,143.516,0,0,1-9.239,19.57c-5.127,9.474-9.177,16.957-6.256,25.168A20.057,20.057,0,0,0,27.361,59.844ZM19,22.9A145.1,145.1,0,0,0,28.362,3.071a1.788,1.788,0,0,1,3.276,0A145.151,145.151,0,0,0,41,22.9c3.913,7.232,7,12.944,7,18.542a15.812,15.812,0,0,1-5.484,11.91,19.047,19.047,0,0,1-14.92,4.5,18.015,18.015,0,0,1-14.722-11.4C10.251,39.078,13.923,32.294,19,22.9Z"/><path d="M20,50a1,1,0,0,0,.707-.293l20-20a1,1,0,1,0-1.414-1.414l-20,20A1,1,0,0,0,20,50Z"/><path d="M23.5,37A4.5,4.5,0,1,0,19,32.5,4.5,4.5,0,0,0,23.5,37Zm0-7A2.5,2.5,0,1,1,21,32.5,2.5,2.5,0,0,1,23.5,30Z"/><path d="M36.5,41A4.5,4.5,0,1,0,41,45.5,4.5,4.5,0,0,0,36.5,41Zm0,7A2.5,2.5,0,1,1,39,45.5,2.5,2.5,0,0,1,36.5,48Z"/></g></svg>
